X:5886
T:Scottish à Cadet
O:england
N:please mail errors to: simon.wascher@chello.at
M:2/4
L:1/16
K:G
D2GA B2A2|G2Bcd4|dedc BdcB|AcBA B2G2|
D2GA B2A2|G2Bcd4|dedc BdcB|1AcBAG4:|2AcBA G2GA||
|:B2B2 A2^FG|A2A2G4|DEFG A2A2|GFGA B2GA|
B2B2 A2FG|A2A2G4|DEFG A2A2|GFGAG4:|


